launcher/android/assets/skins/day/svg/map-state-car.svg

<svg enable-background="new 0 0 78.13 78.25" height="78.25" viewBox="0 0 78.13 78.25" width="78.125" xmlns="http://www.w3.org/2000/svg" xmlns:xlink="http://www.w3.org/1999/xlink"><linearGradient id="a" gradientTransform="matrix(0 1 -1 0 -1.847377 -2.847377)" gradientUnits="objectBoundingBox" x1=".5" x2="6.19475" y1="-2.34738" y2="-2.34738"><stop offset=".427907" stop-color="#eeeaea"/><stop offset=".576744" stop-color="#fff" stop-opacity="0"/></linearGradient><linearGradient id="b" gradientTransform="matrix(0 -1 1 0 -.518678 1.518612)" gradientUnits="objectBoundingBox" x1=".499967" x2="1.53738" y1="1.01864" y2="1.01864"><stop offset="0" stop-color="#fffc00"/><stop offset="1" stop-color="#69681a"/></linearGradient><g stroke-linejoin="round"><path d="m11.5.499988h55.125c6.0752 0 11 4.924862 11 11.000012v55.25c0 6.0751-4.9248 11-11 11h-55.125c-6.0751 0-11-4.9249-11-11v-55.25c0-6.07515 4.9249-11.000012 11-11.000012z" fill="#8c9e64" stroke="#000"/><path d="m65.9047.85419h-53.862c-5.48902 0-10.01697 4.21122-10.6677 9.64901 1.28574 2.512 3.85751 4.226 6.82043 4.226h61.92287c2.7386 0 5.1431-1.4643 6.5067-3.6696-.3978-5.70421-5.0454-10.20541-10.7203-10.20541z" fill="url(#a)" stroke-width=".2"/><path d="m27.6725 38.685c-1.5692.98-3.5365 1.47-5.9019 1.47-3.0538 0-5.4935-.9618-7.3194-2.8853-1.8258-1.9235-2.7387-4.4676-2.7387-7.6322 0-3.4008 1.0274-6.1381 3.0821-8.2119 2.0549-2.0737 4.6645-3.1106 7.8291-3.1106 2.0358 0 3.7187.3967 5.0488 1.19v2.52c-1.5342-.7933-3.22-1.19-5.0575-1.19-2.3917 0-4.34.7773-5.845 2.3319s-2.2575 3.6517-2.2575 6.2912c0 2.5055.7021 4.4946 2.1065 5.9675 1.4044 1.473 3.2412 2.2094 5.5104 2.2094 2.1262 0 3.9739-.49 5.5431-1.47z"/><path d="m48.3925 39.875h-3.08l-2.1394-5.6h-8.7238l-2.0168 5.6h-3.0801l8.1201-21.28h2.8zm-6.0156-8.12-3.1982-8.8725c-.102-.2858-.2114-.7817-.3281-1.4875h-.07c-.0992.6417-.2129 1.1375-.3412 1.4875l-3.1719 8.8725z"/><path d="m66.8724 39.875h-3.3599l-3.4169-5.9106c-.6825-1.1813-1.3074-1.9848-1.8747-2.4106-.5673-.4259-1.2447-.6388-2.0322-.6388h-1.9162v8.96h-2.8001v-21.28h6.3744c2.0329 0 3.6255.4973 4.7775 1.4919 1.1521.9946 1.7281 2.3858 1.7281 4.1737 0 2.9371-1.5473 4.8432-4.6418 5.7182v.07c.5833.2479 1.0872.6015 1.5115 1.0609.4244.4594.9735 1.2462 1.6472 2.3603zm-12.5999-18.76v7.28h3.1587c1.2221 0 2.2145-.3551 2.9772-1.0653s1.1441-1.6413 1.1441-2.7934c0-1.0734-.3479-1.9119-1.0435-2.5157-.6956-.6037-1.7084-.9056-3.0384-.9056z"/><path d="m11.6514 56.7868h54.822c1.4298 0 2.589 1.1591 2.589 2.589l0 0c0 1.4298-1.1592 2.589-2.589 2.589h-54.822c-1.4298 0-2.58899-1.1592-2.58899-2.589l0 0c0-1.4299 1.15919-2.589 2.58899-2.589z" fill="url(#b)" stroke-width=".2"/></g></svg>

﻿<?xml version="1.0" encoding="utf-8"?>
<!DOCTYPE svg PUBLIC "-//W3C//DTD SVG 1.1//EN" "http://www.w3.org/Graphics/SVG/1.1/DTD/svg11.dtd">
<svg xmlns="http://www.w3.org/2000/svg" xmlns:xlink="http://www.w3.org/1999/xlink" version="1.1" baseProfile="full" width="78.125" height="78.25" viewBox="0 0 78.13 78.25" enable-background="new 0 0 78.13 78.25" xml:space="preserve">
	<g>
		<path fill="#8C9E64" fill-opacity="1" stroke-linejoin="round" stroke="#000000" stroke-opacity="1" d="M 11.5,0.499988L 66.625,0.499988C 72.7002,0.499988 77.625,5.42485 77.625,11.5L 77.625,66.75C 77.625,72.8251 72.7002,77.75 66.625,77.75L 11.5,77.75C 5.4249,77.75 0.5,72.8251 0.5,66.75L 0.5,11.5C 0.5,5.42485 5.4249,0.499988 11.5,0.499988 Z "/>
		<linearGradient id="SVGID_Fill1_" gradientUnits="objectBoundingBox" x1="0.5" y1="-2.34738" x2="6.19475" y2="-2.34738" gradientTransform="rotate(90.000000 0.500000 -2.347377)">
			<stop offset="0.427907" stop-color="#EEEAEA" stop-opacity="1"/>
			<stop offset="0.576744" stop-color="#FFFFFF" stop-opacity="0"/>
		</linearGradient>
		<path fill="url(#SVGID_Fill1_)" stroke-width="0.2" stroke-linejoin="round" d="M 65.9047,0.85419L 12.0427,0.85419C 6.55368,0.85419 2.02573,5.06541 1.375,10.5032C 2.66074,13.0152 5.23251,14.7292 8.19543,14.7292L 70.1183,14.7292C 72.8569,14.7292 75.2614,13.2649 76.625,11.0596C 76.2272,5.35539 71.5796,0.85419 65.9047,0.85419 Z "/>
	</g>
	<g>
		<path fill="#000000" fill-opacity="1" stroke-linejoin="round" d="M 27.6725,38.685C 26.1033,39.665 24.136,40.155 21.7706,40.155C 18.7168,40.155 16.2771,39.1932 14.4512,37.2697C 12.6254,35.3462 11.7125,32.8021 11.7125,29.6375C 11.7125,26.2367 12.7399,23.4994 14.7946,21.4256C 16.8495,19.3519 19.4591,18.315 22.6237,18.315C 24.6595,18.315 26.3424,18.7117 27.6725,19.505L 27.6725,22.025C 26.1383,21.2317 24.4525,20.835 22.615,20.835C 20.2233,20.835 18.275,21.6123 16.77,23.1669C 15.265,24.7215 14.5125,26.8186 14.5125,29.4581C 14.5125,31.9636 15.2146,33.9527 16.619,35.4256C 18.0234,36.8986 19.8602,37.635 22.1294,37.635C 24.2556,37.635 26.1033,37.145 27.6725,36.165L 27.6725,38.685 Z "/>
		<path fill="#000000" fill-opacity="1" stroke-linejoin="round" d="M 48.3925,39.875L 45.3125,39.875L 43.1731,34.275L 34.4493,34.275L 32.4325,39.875L 29.3524,39.875L 37.4725,18.595L 40.2725,18.595L 48.3925,39.875 Z M 42.3769,31.755L 39.1787,22.8825C 39.0767,22.5967 38.9673,22.1008 38.8506,21.395L 38.7806,21.395C 38.6814,22.0367 38.5677,22.5325 38.4394,22.8825L 35.2675,31.755L 42.3769,31.755 Z "/>
		<path fill="#000000" fill-opacity="1" stroke-linejoin="round" d="M 66.8724,39.875L 63.5125,39.875L 60.0956,33.9644C 59.4131,32.7831 58.7882,31.9796 58.2209,31.5538C 57.6536,31.1279 56.9762,30.915 56.1887,30.915L 54.2725,30.915L 54.2725,39.875L 51.4724,39.875L 51.4724,18.595L 57.8468,18.595C 59.8797,18.595 61.4723,19.0923 62.6243,20.0869C 63.7764,21.0815 64.3524,22.4727 64.3524,24.2606C 64.3524,27.1977 62.8051,29.1038 59.7106,29.9788L 59.7106,30.0488C 60.2939,30.2967 60.7978,30.6503 61.2221,31.1097C 61.6465,31.5691 62.1956,32.3559 62.8693,33.47L 66.8724,39.875 Z M 54.2725,21.115L 54.2725,28.395L 57.4312,28.395C 58.6533,28.395 59.6457,28.0399 60.4084,27.3297C 61.1711,26.6195 61.5525,25.6884 61.5525,24.5363C 61.5525,23.4629 61.2046,22.6244 60.509,22.0206C 59.8134,21.4169 58.8006,21.115 57.4706,21.115L 54.2725,21.115 Z "/>
	</g>
	<linearGradient id="SVGID_Fill2_" gradientUnits="objectBoundingBox" x1="0.499967" y1="1.01864" x2="1.53738" y2="1.01864" gradientTransform="rotate(-90.000000 0.499967 1.018645)">
		<stop offset="0" stop-color="#FFFC00" stop-opacity="1"/>
		<stop offset="1" stop-color="#69681A" stop-opacity="1"/>
	</linearGradient>
	<path fill="url(#SVGID_Fill2_)" stroke-width="0.2" stroke-linejoin="round" d="M 11.6514,56.7868L 66.4734,56.7868C 67.9032,56.7868 69.0624,57.9459 69.0624,59.3758L 69.0624,59.3758C 69.0624,60.8056 67.9032,61.9648 66.4734,61.9648L 11.6514,61.9648C 10.2216,61.9648 9.06241,60.8056 9.06241,59.3758L 9.06241,59.3758C 9.06241,57.9459 10.2216,56.7868 11.6514,56.7868 Z "/>
</svg>
